src/standard/router-load-balancer-virtual.svg

<svg xmlns="http://www.w3.org/2000/svg" viewBox="0 0 36 36">
  <path d="M31 12.38H5a.63.63 0 0 0-.63.62v10a.63.63 0 0 0 .63.62h26a.62.62 0 0 0 .62-.62V13a.62.62 0 0 0-.62-.62Zm-.63 10H5.62v-8.76h24.75Z"/>
  <path d="M9 20.62a.62.62 0 0 0 .62-.62v-4a.62.62 0 0 0-.62-.62.63.63 0 0 0-.63.62v4a.63.63 0 0 0 .63.62Zm3 0a.62.62 0 0 0 .62-.62v-4a.62.62 0 0 0-.62-.62.63.63 0 0 0-.63.62v4a.63.63 0 0 0 .63.62Zm3 0a.62.62 0 0 0 .62-.62v-4a.62.62 0 0 0-.62-.62.63.63 0 0 0-.63.62v4a.63.63 0 0 0 .63.62Zm3 0a.62.62 0 0 0 .62-.62v-4a.62.62 0 0 0-.62-.62.63.63 0 0 0-.63.62v4a.63.63 0 0 0 .63.62Zm-3.1 4.27a.63.63 0 1 0 .62.62.63.63 0 0 0-.62-.62Zm3.1 0a.63.63 0 1 0 0 1.25.63.63 0 1 0 0-1.25Zm-9.3 0a.63.63 0 1 0 .62.62.63.63 0 0 0-.62-.62Zm-3.1 0a.63.63 0 1 0 .62.62.63.63 0 0 0-.62-.62Zm6.2 0a.63.63 0 1 0 .62.62.63.63 0 0 0-.62-.62Zm9.3 0a.63.63 0 1 0 .63.62.62.62 0 0 0-.63-.62Zm3.1 0a.63.63 0 1 0 .63.62.62.62 0 0 0-.63-.62Zm6.2 0a.63.63 0 1 0 .63.62.62.62 0 0 0-.63-.62Zm-3.1 0a.63.63 0 1 0 .63.62.62.62 0 0 0-.63-.62ZM2.5 18.88a.63.63 0 1 0 .62.62.63.63 0 0 0-.62-.62Zm0 3a.63.63 0 1 0 .62.63.63.63 0 0 0-.62-.63Zm0-9.01a.63.63 0 1 0 .62.62.63.63 0 0 0-.62-.62Zm0 3a.63.63 0 1 0 .62.63.63.63 0 0 0-.62-.63Zm9.3-4.76a.63.63 0 1 0-.63-.62.62.62 0 0 0 .63.62Zm6.2 0a.63.63 0 1 0-.63-.62.63.63 0 0 0 .63.62Zm-3.1 0a.63.63 0 1 0-.63-.62.62.62 0 0 0 .63.62Zm6.2 0a.63.63 0 1 0-.62-.62.63.63 0 0 0 .62.62Zm3.1 0a.63.63 0 1 0 0-1.25.63.63 0 0 0 0 1.25Zm-15.5 0a.63.63 0 1 0-.63-.62.62.62 0 0 0 .63.62Zm18.6 0a.63.63 0 1 0-.62-.62.63.63 0 0 0 .62.62Zm3.1 0a.63.63 0 1 0-.62-.62.63.63 0 0 0 .62.62Zm-24.8 0a.63.63 0 1 0-.6-.62.62.62 0 0 0 .6.62Zm27.9 10.77a.63.63 0 1 0 .63.63.63.63 0 0 0-.63-.63Zm0-9.01a.63.63 0 1 0 .63.62.62.62 0 0 0-.63-.62Zm0 6.01a.62.62 0 0 0-.62.62.63.63 0 1 0 1.25 0 .62.62 0 0 0-.63-.62Zm0-3.01a.63.63 0 1 0 .63.63.63.63 0 0 0-.63-.63Zm0-6.01a.63.63 0 1 0 .63.62.62.62 0 0 0-.63-.62Zm-31.01 0a.63.63 0 1 0 .63.62.62.62 0 0 0-.63-.62Zm0 15.03a.63.63 0 1 0 .63.62.62.62 0 0 0-.63-.62Zm31.01 0a.63.63 0 1 0 .63.62.62.62 0 0 0-.63-.62ZM27 17.37a.63.63 0 1 0 .63.62.62.62 0 0 0-.63-.62Z"/>
</svg>

<svg id="ae0cd407-e859-43b4-b9c0-779056d8e21a" data-name="Icon" xmlns="http://www.w3.org/2000/svg" viewBox="0 0 36 36">
  <title>Virtual router icon - Black</title>
<desc>routing, networking, arrows, square, infrastructure, box, hardware, load balancer</desc>
<metadata><?xpacket begin="﻿" id="W5M0MpCehiHzreSzNTczkc9d"?>
<x:xmpmeta xmlns:x="adobe:ns:meta/" x:xmptk="Adobe XMP Core 8.0-c001 1.000000, 0000/00/00-00:00:00        ">
   <rdf:RDF xmlns:rdf="http://www.w3.org/1999/02/22-rdf-syntax-ns#">
      <rdf:Description rdf:about=""
            xmlns:xmp="http://ns.adobe.com/xap/1.0/"
            xmlns:dc="http://purl.org/dc/elements/1.1/"
            xmlns:cq="http://www.day.com/jcr/cq/1.0"
            xmlns:tiff="http://ns.adobe.com/tiff/1.0/">
         <xmp:rhcc-effective-on>2023-12-08T17:34:24.469Z</xmp:rhcc-effective-on>
         <xmp:rhcc-metadata-complete-moderator>pending</xmp:rhcc-metadata-complete-moderator>
         <xmp:rhcc-translation-id>TRA1d7362e1-f9a5-49d8-8d07-bf966de79f19</xmp:rhcc-translation-id>
         <xmp:brand-content-type>Icon</xmp:brand-content-type>
         <xmp:CreateDate>2023-12-08T17:34:24.469Z</xmp:CreateDate>
         <xmp:rhcc-effective-on-set-on-upload>true</xmp:rhcc-effective-on-set-on-upload>
         <xmp:rhcc-metadata-complete-uploader>pending</xmp:rhcc-metadata-complete-uploader>
         <xmp:rhcc-file-last-modified>2023-12-08T17:34:34.936Z</xmp:rhcc-file-last-modified>
         <xmp:rhcc-audience>rhcc-audience:internal</xmp:rhcc-audience>
         <xmp:rhcc-rights-restricted>no</xmp:rhcc-rights-restricted>
         <xmp:brand-content-subtype>Icon</xmp:brand-content-subtype>
         <xmp:rhcc-derivative-id>DER1d7362e1-f9a5-49d8-8d07-bf966de79f19</xmp:rhcc-derivative-id>
         <xmp:brand-logo-color>Black</xmp:brand-logo-color>
         <xmp:rhcc-notify-portal-subscribers-on-change>yes</xmp:rhcc-notify-portal-subscribers-on-change>
         <dc:format>image/svg+xml</dc:format>
         <dc:modified>2024-02-09T20:12:26.801Z</dc:modified>
         <dc:title>
            <rdf:Alt>
               <rdf:li xml:lang="x-default">Virtual router icon - Black</rdf:li>
            </rdf:Alt>
         </dc:title>
         <dc:description>
            <rdf:Alt>
               <rdf:li xml:lang="x-default">routing, networking, arrows, square, infrastructure, box, hardware, load balancer</rdf:li>
            </rdf:Alt>
         </dc:description>
         <cq:lastReplicationAction_scene7>Activate</cq:lastReplicationAction_scene7>
         <cq:lastReplicationAction_publish>Activate</cq:lastReplicationAction_publish>
         <cq:lastReplicated_publish>2024-02-09T21:48:04.687Z</cq:lastReplicated_publish>
         <cq:lastReplicatedBy>workflow-process-service</cq:lastReplicatedBy>
         <cq:lastReplicationAction>Activate</cq:lastReplicationAction>
         <cq:lastReplicatedBy_publish>workflow-process-service</cq:lastReplicatedBy_publish>
         <cq:isDelivered>true</cq:isDelivered>
         <cq:lastReplicated>2024-02-09T21:48:04.687Z</cq:lastReplicated>
         <cq:lastReplicatedBy_scene7>workflow-process-service</cq:lastReplicatedBy_scene7>
         <cq:lastReplicated_scene7>2024-02-09T21:48:04.687Z</cq:lastReplicated_scene7>
         <tiff:ImageLength>36</tiff:ImageLength>
         <tiff:ImageWidth>36</tiff:ImageWidth>
      </rdf:Description>
   </rdf:RDF>
</x:xmpmeta>
                                                                                                    
                                                                                                    
                                                                                                    
                                                                                                    
                                                                                                    
                                                                                                    
                                                                                                    
                                                                                                    
                                                                                                    
                                                                                                    
                                 
<?xpacket end="w"?></metadata>
<g>
    <path d="M31,12.38H5a.63.63,0,0,0-.63.62V23a.63.63,0,0,0,.63.62H31a.62.62,0,0,0,.62-.62V13A.62.62,0,0,0,31,12.38Zm-.63,10H5.62V13.62H30.37Z"/>
    <path d="M9,20.62A.62.62,0,0,0,9.62,20V16A.62.62,0,0,0,9,15.38a.63.63,0,0,0-.63.62v4A.63.63,0,0,0,9,20.62Z"/>
    <path d="M12,20.62a.62.62,0,0,0,.62-.62V16a.62.62,0,0,0-.62-.62.63.63,0,0,0-.63.62v4A.63.63,0,0,0,12,20.62Z"/>
    <path d="M15,20.62a.62.62,0,0,0,.62-.62V16a.62.62,0,0,0-.62-.62.63.63,0,0,0-.63.62v4A.63.63,0,0,0,15,20.62Z"/>
    <path d="M18,20.62a.62.62,0,0,0,.62-.62V16a.62.62,0,0,0-.62-.62.63.63,0,0,0-.63.62v4A.63.63,0,0,0,18,20.62Z"/>
    <path d="M14.9,24.89a.63.63,0,1,0,.62.62A.63.63,0,0,0,14.9,24.89Z"/>
    <path d="M18,24.89a.63.63,0,1,0,0,1.25.63.63,0,1,0,0-1.25Z"/>
    <path d="M8.7,24.89a.63.63,0,1,0,.62.62A.63.63,0,0,0,8.7,24.89Z"/>
    <path d="M5.6,24.89a.63.63,0,1,0,.62.62A.63.63,0,0,0,5.6,24.89Z"/>
    <path d="M11.8,24.89a.63.63,0,1,0,.62.62A.63.63,0,0,0,11.8,24.89Z"/>
    <path d="M21.1,24.89a.63.63,0,1,0,.63.62A.62.62,0,0,0,21.1,24.89Z"/>
    <path d="M24.2,24.89a.63.63,0,1,0,.63.62A.62.62,0,0,0,24.2,24.89Z"/>
    <path d="M30.4,24.89a.63.63,0,1,0,.63.62A.62.62,0,0,0,30.4,24.89Z"/>
    <path d="M27.3,24.89a.63.63,0,1,0,.63.62A.62.62,0,0,0,27.3,24.89Z"/>
    <path d="M2.5,18.88a.63.63,0,1,0,.62.62A.63.63,0,0,0,2.5,18.88Z"/>
    <path d="M2.5,21.88a.63.63,0,1,0,.62.63A.63.63,0,0,0,2.5,21.88Z"/>
    <path d="M2.5,12.87a.63.63,0,1,0,.62.62A.63.63,0,0,0,2.5,12.87Z"/>
    <path d="M2.5,15.87a.63.63,0,1,0,.62.63A.63.63,0,0,0,2.5,15.87Z"/>
    <path d="M11.8,11.11a.63.63,0,1,0-.63-.62A.62.62,0,0,0,11.8,11.11Z"/>
    <path d="M18,11.11a.63.63,0,1,0-.63-.62A.63.63,0,0,0,18,11.11Z"/>
    <path d="M14.9,11.11a.63.63,0,1,0-.63-.62A.62.62,0,0,0,14.9,11.11Z"/>
    <path d="M21.1,11.11a.63.63,0,1,0-.62-.62A.63.63,0,0,0,21.1,11.11Z"/>
    <path d="M24.2,11.11a.63.63,0,1,0,0-1.25.63.63,0,0,0,0,1.25Z"/>
    <path d="M8.7,11.11a.63.63,0,1,0-.63-.62A.62.62,0,0,0,8.7,11.11Z"/>
    <path d="M27.3,11.11a.63.63,0,1,0-.62-.62A.63.63,0,0,0,27.3,11.11Z"/>
    <path d="M30.4,11.11a.63.63,0,1,0-.62-.62A.63.63,0,0,0,30.4,11.11Z"/>
    <path d="M5.6,11.11A.63.63,0,1,0,5,10.49.62.62,0,0,0,5.6,11.11Z"/>
    <path d="M33.5,21.88a.63.63,0,1,0,.63.63A.63.63,0,0,0,33.5,21.88Z"/>
    <path d="M33.5,12.87a.63.63,0,1,0,.63.62A.62.62,0,0,0,33.5,12.87Z"/>
    <path d="M33.5,18.88a.62.62,0,0,0-.62.62.63.63,0,1,0,1.25,0A.62.62,0,0,0,33.5,18.88Z"/>
    <path d="M33.5,15.87a.63.63,0,1,0,.63.63A.63.63,0,0,0,33.5,15.87Z"/>
    <path d="M33.5,9.86a.63.63,0,1,0,.63.62A.62.62,0,0,0,33.5,9.86Z"/>
    <path d="M2.49,9.86a.63.63,0,1,0,.63.62A.62.62,0,0,0,2.49,9.86Z"/>
    <path d="M2.49,24.89a.63.63,0,1,0,.63.62A.62.62,0,0,0,2.49,24.89Z"/>
    <path d="M33.5,24.89a.63.63,0,1,0,.63.62A.62.62,0,0,0,33.5,24.89Z"/>
    <path d="M27,17.37a.63.63,0,1,0,.63.62A.62.62,0,0,0,27,17.37Z"/>
  </g>
</svg>
